www/assets/icons/auto_awesome_mosaic.svg

<svg width="24" height="24" viewBox="0 0 24 24" xmlns="http://www.w3.org/2000/svg" fill='currentColor'><path d="M3 5V19C3 20.1 3.89 21 5 21H11V3H5C3.89 3 3 3.9 3 5ZM19 3H13V11H21V5C21 3.9 20.1 3 19 3ZM13 21H19C20.1 21 21 20.1 21 19V13H13V21Z"/></svg>

<svg xmlns="http://www.w3.org/2000/svg" width="24" height="24" viewBox="0 0 24 24" fill='currentColor'><path d="M3 5v14a2 2 0 0 0 2 2h6V3H5a2 2 0 0 0-2 2m16-2h-6v8h8V5c0-1.1-.9-2-2-2m-6 18h6c1.1 0 2-.9 2-2v-6h-8z"/></svg>
